packages/icons/raw/imported/TypeZoomOut.svg

<svg width="32" height="32" viewBox="0 0 32 32" fill="none" xmlns="http://www.w3.org/2000/svg">
<g filter="url(#filter0_d_2567:572)">
<path d="M19.6875 13.6045C19.6875 14.7603 19.3448 15.8901 18.7027 16.8511C18.0605 17.8121 17.1479 18.5611 16.0801 19.0034C15.0123 19.4457 13.8373 19.5614 12.7037 19.336C11.5701 19.1105 10.5289 18.5539 9.7116 17.7366C8.89433 16.9194 8.33777 15.8781 8.11229 14.7446C7.88681 13.611 8.00253 12.436 8.44483 11.3682C8.88713 10.3004 9.63614 9.38771 10.5971 8.74559C11.5581 8.10347 12.688 7.76074 13.8438 7.76074C15.3936 7.76074 16.88 8.37642 17.9759 9.47234C19.0718 10.5683 19.6875 12.0546 19.6875 13.6045Z" fill="white"/>
<path d="M13.8438 19.4482C17.0712 19.4482 19.6875 16.8319 19.6875 13.6045C19.6875 10.3771 17.0712 7.76074 13.8438 7.76074C10.6163 7.76074 8 10.3771 8 13.6045C8 16.8319 10.6163 19.4482 13.8438 19.4482Z" stroke="black"/>
<path d="M17.0312 12.563H10.6775V14.6667H17.0312V12.563Z" fill="black"/>
<path d="M18.6811 16.9442L17.1785 18.4468L22.971 24.2393L24.4736 22.7367L18.6811 16.9442Z" fill="black"/>
</g>
<defs>
<filter id="filter0_d_2567:572" x="-2" y="0" width="36" height="36" filterUnits="userSpaceOnUse" color-interpolation-filters="sRGB">
<feFlood flood-opacity="0" result="BackgroundImageFix"/>
<feColorMatrix in="SourceAlpha" type="matrix" values="0 0 0 0 0 0 0 0 0 0 0 0 0 0 0 0 0 0 127 0" result="hardAlpha"/>
<feOffset dy="2"/>
<feGaussianBlur stdDeviation="1"/>
<feColorMatrix type="matrix" values="0 0 0 0 0 0 0 0 0 0 0 0 0 0 0 0 0 0 0.25 0"/>
<feBlend mode="normal" in2="BackgroundImageFix" result="effect1_dropShadow_2567:572"/>
<feBlend mode="normal" in="SourceGraphic" in2="effect1_dropShadow_2567:572" result="shape"/>
</filter>
</defs>
</svg>

<svg width="32" height="32" fill="none" xmlns="http://www.w3.org/2000/svg"><g filter="url(#a)"><path d="M19.688 13.604a5.844 5.844 0 1 1-11.688 0 5.844 5.844 0 0 1 11.688 0Z" fill="#fff"/><path d="M13.844 19.448a5.844 5.844 0 1 0 0-11.687 5.844 5.844 0 0 0 0 11.687Z" stroke="#000"/><path d="M17.031 12.563h-6.353v2.104h6.353v-2.104ZM18.681 16.944l-1.503 1.503 5.793 5.792 1.503-1.502-5.793-5.793Z" fill="#000"/></g><defs><filter id="a" x="-2" y="0" width="36" height="36" filterUnits="userSpaceOnUse" color-interpolation-filters="sRGB"><feFlood flood-opacity="0" result="BackgroundImageFix"/><feColorMatrix in="SourceAlpha" values="0 0 0 0 0 0 0 0 0 0 0 0 0 0 0 0 0 0 127 0" result="hardAlpha"/><feOffset dy="2"/><feGaussianBlur stdDeviation="1"/><feColorMatrix values="0 0 0 0 0 0 0 0 0 0 0 0 0 0 0 0 0 0 0.25 0"/><feBlend in2="BackgroundImageFix" result="effect1_dropShadow_2567:572"/><feBlend in="SourceGraphic" in2="effect1_dropShadow_2567:572" result="shape"/></filter></defs></svg>
